flaticon/online-marketing/tag.svg

<svg xmlns="http://www.w3.org/2000/svg" width="32" height="32" viewBox="0 0 24 24">
    <path d="M 5.59375 13.238281 C 6.273438 13.238281 6.828125 12.683594 6.828125 12 C 6.828125 11.316406 6.273438 10.761719 5.59375 10.761719 C 4.910156 10.761719 4.355469 11.316406 4.355469 12 C 4.355469 12.683594 4.910156 13.238281 5.59375 13.238281 Z M 5.59375 11.585938 C 5.820312 11.585938 6.003906 11.773438 6.003906 12 C 6.003906 12.226562 5.820312 12.414062 5.59375 12.414062 C 5.363281 12.414062 5.179688 12.226562 5.179688 12 C 5.179688 11.773438 5.363281 11.585938 5.59375 11.585938 Z M 5.59375 11.585938"/>
    <path d="M 23.585938 5.320312 L 4.101562 5.320312 C 3.875 5.320312 3.691406 5.507812 3.691406 5.734375 C 3.691406 7.542969 2.21875 9.011719 0.414062 9.011719 C 0.183594 9.011719 0 9.199219 0 9.425781 L 0 14.574219 C 0 14.800781 0.183594 14.988281 0.414062 14.988281 C 2.21875 14.988281 3.691406 16.457031 3.691406 18.265625 C 3.691406 18.492188 3.875 18.679688 4.101562 18.679688 L 23.585938 18.679688 C 23.816406 18.679688 24 18.492188 24 18.265625 L 24 5.734375 C 24 5.507812 23.816406 5.320312 23.585938 5.320312 Z M 23.175781 17.855469 L 4.496094 17.855469 C 4.300781 15.917969 2.757812 14.378906 0.824219 14.183594 L 0.824219 9.816406 C 2.757812 9.625 4.300781 8.082031 4.496094 6.148438 L 23.175781 6.148438 Z M 23.175781 17.855469"/>
    <path d="M 1.835938 10.34375 C 1.664062 10.398438 1.546875 10.558594 1.546875 10.738281 L 1.546875 13.261719 C 1.546875 13.441406 1.664062 13.601562 1.835938 13.65625 C 3.359375 14.128906 4.550781 15.320312 5.023438 16.84375 C 5.074219 17.015625 5.234375 17.132812 5.414062 17.132812 L 22.042969 17.132812 C 22.269531 17.132812 22.453125 16.949219 22.453125 16.722656 L 22.453125 7.277344 C 22.453125 7.050781 22.269531 6.867188 22.042969 6.867188 L 5.414062 6.867188 C 5.234375 6.867188 5.074219 6.984375 5.023438 7.15625 C 4.550781 8.679688 3.359375 9.871094 1.835938 10.34375 Z M 5.710938 7.691406 L 21.628906 7.691406 L 21.628906 16.308594 L 5.710938 16.308594 C 5.140625 14.761719 3.917969 13.539062 2.371094 12.96875 L 2.371094 11.03125 C 3.917969 10.460938 5.140625 9.238281 5.710938 7.691406 Z M 5.710938 7.691406"/>
    <path d="M9.058594 10.140625L19.617188 10.140625C19.847656 10.140625 20.03125 9.953125 20.03125 9.726562 20.03125 9.5 19.847656 9.316406 19.617188 9.316406L9.058594 9.316406C8.828125 9.316406 8.644531 9.5 8.644531 9.726562 8.644531 9.953125 8.828125 10.140625 9.058594 10.140625zM9.058594 12.414062L19.617188 12.414062C19.847656 12.414062 20.03125 12.226562 20.03125 12 20.03125 11.773438 19.847656 11.585938 19.617188 11.585938L9.058594 11.585938C8.828125 11.585938 8.644531 11.773438 8.644531 12 8.644531 12.226562 8.828125 12.414062 9.058594 12.414062zM9.058594 14.683594L19.617188 14.683594C19.847656 14.683594 20.03125 14.5 20.03125 14.273438 20.03125 14.046875 19.847656 13.859375 19.617188 13.859375L9.058594 13.859375C8.828125 13.859375 8.644531 14.046875 8.644531 14.273438 8.644531 14.5 8.828125 14.683594 9.058594 14.683594zM9.058594 14.683594"/>
</svg>

<svg xmlns="http://www.w3.org/2000/svg" width="32" height="32" viewBox="0 0 24 24">
    <path d="M5.594 13.238a1.238 1.238 0 0 0 0-2.476 1.239 1.239 0 0 0 0 2.476zm0-1.652a.413.413 0 0 1 0 .828.414.414 0 0 1 0-.828zm0 0"/>
    <path d="M23.586 5.32H4.102a.413.413 0 0 0-.41.414A3.282 3.282 0 0 1 .413 9.012.414.414 0 0 0 0 9.426v5.148c0 .227.184.414.414.414a3.282 3.282 0 0 1 3.277 3.278c0 .226.184.414.41.414h19.485c.23 0 .414-.188.414-.414V5.734a.414.414 0 0 0-.414-.414zm-.41 12.535H4.496a4.114 4.114 0 0 0-3.672-3.671V9.816a4.11 4.11 0 0 0 3.672-3.668h18.68zm0 0"/>
    <path d="M1.836 10.344a.415.415 0 0 0-.29.394v2.524c0 .18.118.34.29.394a4.837 4.837 0 0 1 3.187 3.188c.051.172.211.289.391.289h16.629a.41.41 0 0 0 .41-.41V7.277a.41.41 0 0 0-.41-.41H5.414c-.18 0-.34.117-.39.29a4.837 4.837 0 0 1-3.188 3.187zM5.71 7.69h15.918v8.618H5.71a5.643 5.643 0 0 0-3.34-3.34V11.03a5.643 5.643 0 0 0 3.34-3.34zm0 0"/>
    <path d="M9.059 10.14h10.558a.411.411 0 1 0 0-.824H9.06a.411.411 0 0 0-.414.41c0 .227.183.415.414.415zm0 0M9.059 12.414h10.558a.414.414 0 0 0 0-.828H9.06a.414.414 0 0 0 0 .828zm0 0M9.059 14.684h10.558c.23 0 .414-.184.414-.41a.414.414 0 0 0-.414-.415H9.06a.414.414 0 0 0-.414.414c0 .227.183.41.414.41zm0 0"/>
</svg>
